@themes/theme-zeno/src/img/client.svg

<svg width="91" height="90" viewBox="0 0 91 90" fill="none" xmlns="http://www.w3.org/2000/svg">
<path d="M90.008 45.1367C90.0341 69.8862 69.5706 90.6633 43.7234 89.9838C20.4113 89.3827 0.0523693 70.5919 9.99108e-05 45.0583C-0.0521695 19.6292 20.4113 -0.233145 45.4222 0.00206753C70.7467 0.23728 90.1386 20.8837 90.008 45.1367ZM49.2117 39.6222C49.8912 35.9111 51.5638 32.6704 54.2034 30.0047C49.6821 25.2482 41.0054 23.6017 34.0536 26.189C27.729 28.5411 23.6259 33.0624 21.4828 39.5961C30.8913 39.5961 40.0646 39.5961 49.2378 39.5961C47.0687 49.5012 55.4056 59.9289 65.6766 60.0596C71.4262 60.138 77.1758 60.0857 82.9255 60.0596C83.2913 60.0596 83.6834 60.0073 84.1277 59.955C84.1277 59.3539 84.1277 58.8835 84.1277 58.4131C84.1277 53.1077 84.1277 47.8024 84.1277 42.4709C84.1015 30.9717 73.2556 22.5563 62.1484 25.4573C59.1952 26.2152 56.6078 27.6526 54.3602 29.9001C57.2089 32.6182 59.3781 35.6498 60.4235 39.5961C56.5817 39.6222 52.8967 39.6222 49.2117 39.6222ZM5.64519 45.5026C5.98494 52.0101 15.2105 59.6414 23.1293 60.0596C33.1912 60.5823 42.8871 53.9179 44.1939 45.5026C31.3356 45.5026 18.5035 45.5026 5.64519 45.5026Z" fill="#717485"/>
</svg>

<svg width="91" height="90" fill="none" xmlns="http://www.w3.org/2000/svg"><path d="M90.008 45.137c.026 24.75-20.437 45.526-46.285 44.847C20.411 89.383.053 70.592 0 45.058-.052 19.63 20.411-.233 45.422.002 70.747.237 90.14 20.884 90.008 45.137zm-40.796-5.515c.68-3.71 2.352-6.952 4.991-9.617-4.52-4.757-13.198-6.403-20.15-3.816-6.324 2.352-10.427 6.873-12.57 13.407h27.755c-2.17 9.905 6.168 20.333 16.439 20.464 5.75.078 11.499.026 17.248 0 .366 0 .758-.053 1.203-.105v-1.542-15.942c-.026-11.5-10.872-19.915-21.98-17.014-2.953.758-5.54 2.196-7.788 4.443 2.849 2.718 5.018 5.75 6.063 9.696-3.841.026-7.526.026-11.211.026zm-43.567 5.88c.34 6.508 9.566 14.14 17.484 14.558 10.062.522 19.758-6.142 21.065-14.557H5.645z" fill="#717485"/></svg>
